X:3
T:The Banshee
R:reel
C:James McMahon
O:Ireland
M:4/4
L:1/8
K:G
"G" G2 GD  EDEG | "C" AGAB "D" d2 Bd | "C" eged    "G" BAGA | "C" BAGE  "D" EDDE |
"G" G2 GD  EDEG | "C" AGAB "D" d2 Bd | "C" eged    "G" BAGA | "C" BAGE "D" ED D2 :|
"Am" eaag  efge | "Em" dBBA    B2 Bd | "Em" eB ~B2 "G" gBfB | "Em"  eBBA  B2  Bd |
"Am" eaag  efge | "Em" dBBA    B2 Bd | "C" eged    "G" BAGA | "C" BAGE "D" ED D2 :|
